svgs/regular/angel.svg

<svg xmlns="http://www.w3.org/2000/svg" viewBox="0 0 576 512"><!-- Font Awesome Pro 6.0.0-alpha2 by @fontawesome - https://fontawesome.com License - https://fontawesome.com/license (Commercial License) --><path d="M571.747 453.125L533.498 374.5C526.873 361 526.873 344.875 533.498 331.375C549.747 298 559.872 293.875 559.872 256.125C559.872 205 512.998 160.125 459.499 160.125C434.375 160.125 410.75 170.125 393.251 188.25L320.502 261.625C310.253 258.25 299.253 256.25 288.003 256.25S265.879 258.25 255.629 261.625L182.881 188.25C165.256 170.25 141.756 160.25 116.632 160.25C63.133 160.25 16.259 205.125 16.259 256.25C16.259 294.125 26.384 298.25 42.634 331.5C49.258 345 49.258 361.125 42.634 374.625L4.384 453.125C-10.115 482.875 13.759 512 40.759 512H535.373C562.997 512 585.747 482.125 571.747 453.125ZM52.383 464L85.758 395.375C98.757 368.75 98.757 336.875 85.758 310.25C80.383 299.125 75.883 291.375 72.258 285.25C65.133 272.75 64.258 271.25 64.258 256C64.258 231.25 89.758 208 116.632 208C128.757 208 140.131 212.875 148.756 221.75L213.88 287.5C206.63 295 200.255 303.625 195.505 313.25L120.132 464H52.383ZM173.756 464L238.379 334.75C247.879 315.75 266.879 304 288.128 304C309.253 304 328.252 315.75 337.752 334.75L402.251 464H173.756ZM455.874 464L380.626 313.25C375.751 303.5 369.501 295 362.251 287.5L427.375 221.75C436 212.75 447.375 208 459.499 208C486.499 208 511.873 231.25 511.873 256C511.873 271.25 510.998 272.75 503.748 285.25C500.248 291.375 495.749 299.125 490.249 310.25C477.374 336.875 477.374 368.75 490.249 395.375L523.748 464H455.874ZM208.005 144C208.005 188.25 243.754 224 288.003 224S368.001 188.25 368.001 144S332.252 64 288.003 64S208.005 99.75 208.005 144ZM320.002 144C320.002 161.625 305.628 176 288.003 176S256.004 161.625 256.004 144S270.379 112 288.003 112S320.002 126.375 320.002 144ZM176.756 137.25H176.881C177.756 124.25 180.756 112 185.755 100.625C174.756 94.625 168.131 87.625 168.131 80C168.131 57.875 221.755 40 288.128 40C354.377 40 408.126 57.875 408.126 80C408.126 87.625 401.376 94.625 390.501 100.625C395.376 112 398.501 124.25 399.251 137.25H399.501C429.25 122.75 448 102.5 448 80C448 35.75 376.376 0 288.003 0S128.007 35.75 128.007 80C128.007 102.5 146.756 122.75 176.756 137.25Z"/></svg>

<svg xmlns="http://www.w3.org/2000/svg" viewBox="0 0 576 512"><!-- Font Awesome Pro 5.15.1 by @fontawesome - https://fontawesome.com License - https://fontawesome.com/license (Commercial License) --><path d="M571.7 453.1l-38.2-78.6c-6.6-13.5-6.6-29.6 0-43.1 16.2-33.4 26.4-37.5 26.4-75.3 0-51.1-46.9-96-100.4-96-25.1 0-48.7 10-66.3 28.1l-72.7 73.4c-10.3-3.4-21.2-5.4-32.5-5.4-11.2 0-22.1 2-32.4 5.4l-72.7-73.3c-17.6-18-41.2-28.1-66.3-28.1-53.5 0-100.4 44.9-100.4 96 0 37.9 10.2 42 26.4 75.3 6.6 13.5 6.6 29.6 0 43.1L4.4 453.1c-14.5 29.8 9.3 58.9 36.3 58.9h494.7c27.6 0 50.4-29.9 36.3-58.9zM52.4 464l33.4-68.6c12.9-26.6 12.9-58.5 0-85.1-5.4-11.2-9.9-18.9-13.5-25.1-7.2-12.4-8.1-14-8.1-29.2 0-24.7 25.5-48 52.4-48 12.1 0 23.5 4.9 32.1 13.7l65.2 65.8c-7.3 7.5-13.6 16.1-18.4 25.7L120.1 464H52.4zm121.4 0l64.6-129.3c9.5-18.9 28.5-30.7 49.7-30.7 21.2 0 40.2 11.8 49.7 30.7L402.3 464H173.8zm282.1 0l-75.3-150.8c-4.8-9.7-11.1-18.2-18.4-25.7l65.2-65.8c8.6-8.9 20-13.7 32.1-13.7 27 0 52.4 23.3 52.4 48 0 15.2-.9 16.8-8.1 29.2-3.6 6.2-8.1 13.9-13.5 25.1-12.9 26.6-12.9 58.5 0 85.1l33.4 68.6h-67.8zM208 144c0 44.2 35.8 80 80 80s80-35.8 80-80-35.8-80-80-80-80 35.8-80 80zm112 0c0 17.6-14.4 32-32 32s-32-14.4-32-32 14.4-32 32-32 32 14.4 32 32zm-143.3-6.7l.2-.1c.8-13 3.9-25.2 8.8-36.6-11-6-17.6-13-17.6-20.6 0-22.1 53.7-40 120-40s120 17.9 120 40c0 7.6-6.7 14.6-17.6 20.6 4.9 11.4 8 23.6 8.8 36.6l.2.1C429.3 122.8 448 102.5 448 80c0-44.2-71.6-80-160-80S128 35.8 128 80c0 22.5 18.7 42.8 48.7 57.3z"/></svg>
